X: 40960
T: Trip To Cullenstown, The
R: reel
M: 4/4
K: Amajor
e2 ef ecAB|c2 c/e/c BAFA|e2 ef ecAB|cBBA B2 AB|
cBce f2 ec|efec BAFA|c2 cA BAFA|1 EAAF ABcd:|2 EAAF A2 AB||
ceee f2 ec|ef ec BAFA|ceee f2 ef|afec B2 AB|
cBce f2 ec|efec BAFA|c2 cA BAFA|EAAF A4:|

